X:1
T:Title
%%score { ( 1 3 ) | ( 2 4 ) }
L:1/8
Q:1/4=90
M:6/8
K:D
V:1 treble nm="Grand Piano"
V:3 treble 
V:2 bass 
V:4 bass 
V:1
 [DF][FA][FA] [FA][A,DF][K:bass][F,D] | [G,CE]>[K:treble][A,CF][G,CE] [F,D]3 | %2
w: J.~Howard~Entwisle * * * * *||
 [A,FA]>[Fd][Fd] [Gd]>[CGc][DGB] | [DFA]6 | [DGB]>[DGB][DGB] [GB][FA][DF] | [CE][B,D][CE] F3 | %6
w: ||||
 E>EE ^G>FG | [CA]6 | ccc edc | c>Bc [Fd]3 | BBB dcB | B>AF [CE]3 | FDF [FA][DF][FA] | BGB e3 | %14
w: ||||||||
 d>dd [Gc]>[GB][Gc] | d6 |] %16
w: ||
V:2
 [D,A,][D,D][D,D] [D,D]D,D, | A,,>A,,A,, D,3 | D,>[D,A,][D,A,] [G,B,]>G,G, | D,6 | %4
 G,,>G,,G,, [D,D][D,D][D,A,] | [A,,A,][A,,A,][A,,A,] [D,A,D]3 | %6
 [E,A,C]>[E,A,C][E,C] [E,B,D]>[E,A,D][E,B,D] | [A,,A,]6 | [A,E][A,E][A,E] [A,CG][A,DG][A,EG] | %9
 [A,EG]>[A,DG][A,G][K:bass] [D,A,]3 | [G,D][G,D][G,D] [G,B,D][G,A,D][G,D] | %11
 [D,G,D]>[D,F,D][D,A,D] [A,,A,]3 | [D,A,D][D,F,][D,A,D] [D,D][D,A,][D,D] | %13
 [G,DG][G,B,][G,DG] [G,B,G]3 | [A,F]>[A,F][A,F][K:bass] [A,,A,]>[A,,A,][A,,A,] | A,>A,B, A,3 |] %16
V:3
 x5[K:bass] x | x3/2[K:treble] x9/2 | x6 | x6 | x6 | x6 | x6 | x6 | x6 | x6 | x6 | x6 | x6 | x6 | %14
 x6 | F>FG F3 |] %16
V:4
 x6 | x6 | x6 | x6 | x6 | x6 | x6 | x6 | x6 | x3[K:bass] x3 | x6 | x6 | x6 | x6 | x3[K:bass] x3 | %15
 D,6 |] %16

